UI/POI/SVG/business_outline_24px.svg

<svg width="24" height="24" viewBox="0 0 24 24" fill="none" xmlns="http://www.w3.org/2000/svg">
<path d="M20 4V20H18V16H12V20H10V4H20ZM22 2H8V20H4V18H6V16H4V14H6V12H4V10H6V8H4C3.46957 8 2.96086 8.21071 2.58579 8.58579C2.21071 8.96086 2 9.46957 2 10V22H14V18H16V22H22V2ZM14 6H12V9H14V6ZM18 6H16V9H18V6ZM14 11H12V14H14V11ZM18 11H16V14H18V11Z" fill="#0F1621"/>
</svg>

<svg xmlns="http://www.w3.org/2000/svg" width="24" height="24" viewBox="0 0 24 24"><rect width="24" height="24" style="fill:none"/><path d="M20,4V20H18V16H12v4H10V4H20m2-2H8V20H4V18H6V16H4V14H6V12H4V10H6V8H4a2,2,0,0,0-2,2V22H14V18h2v4h6V2ZM14,6H12V9h2Zm4,0H16V9h2Zm-4,5H12v3h2Zm4,0H16v3h2Z"/></svg>
